frontend/public/svg/objects/movie-clapper.svg

<svg width="147" height="160" viewBox="0 0 147 160" fill="none" xmlns="http://www.w3.org/2000/svg">
<g clip-path="url(#clip0)">
<path d="M144.735 93.0061L144.544 85.751C144.478 83.1342 144.259 80.4871 144.05 77.9268L143.919 76.3102C143.734 73.9933 142.452 72.7181 140.309 72.7181H139.971C136.657 72.7227 133.232 72.7273 129.86 72.8408C126.306 72.9616 122.694 73.1263 119.202 73.2858C112.442 73.5943 105.449 73.9133 98.5789 73.9231C87.9738 73.9395 77.1909 73.7827 66.761 73.633C59.4134 73.528 51.8149 73.419 44.3399 73.3705C40.4747 73.3462 36.5557 73.5339 32.764 73.7157C31.6176 73.7708 30.4708 73.8247 29.3235 73.8759C29.8237 73.6448 30.3251 73.4164 30.8331 73.1979C38.2134 69.9976 45.5924 66.794 52.97 63.5873C72.7258 55.0063 93.153 46.1327 113.284 37.4985C124.054 32.8799 133.14 29.9428 141.88 28.2547C143.799 27.8845 144.834 26.5527 144.647 24.6933C144.466 23.3959 144.027 22.1479 143.356 21.0231C142.268 19.0357 141.081 17.1049 139.797 15.2381C136.736 10.8039 133.608 6.44327 131.226 3.14123C129.701 1.0252 127.788 0.308402 125.547 1.01134C124.028 1.48718 122.47 1.94335 120.965 2.38507C118.123 3.21796 115.189 4.07903 112.353 5.11473C90.6648 13.0466 62.1824 23.7653 34.2074 36.3565C25.3054 40.3634 16.332 44.6027 7.65389 48.7022L4.30658 50.2814C2.4544 51.1556 1.2874 52.3239 0.827965 53.754C0.378374 55.1711 0.652045 56.7778 1.64246 58.5276C4.59635 63.8777 6.8157 69.6018 8.24059 75.5443C8.39155 76.1409 8.58524 76.7257 8.77229 77.2901C8.93375 77.7745 9.09456 78.2589 9.22714 78.7505C9.31771 79.0852 9.42404 79.4219 9.52511 79.7586C9.8393 80.6118 10.026 81.5071 10.079 82.4142C10.0757 83.9526 9.97989 85.5272 9.888 87.0499C9.77249 88.95 9.65376 90.915 9.70823 92.8578C9.98193 102.69 10.3711 113.275 10.9309 126.166C11.0622 129.193 11.2591 132.264 11.4468 135.235C11.7061 139.309 11.9719 143.521 12.0795 147.662C12.2521 154.465 13.4454 155.782 20.0567 156.468C20.5161 156.516 20.9795 156.541 21.4416 156.56C26.2985 156.763 31.2414 157.006 36.0202 157.241C46.7979 157.771 57.9418 158.319 68.9144 158.447C83.3342 158.614 97.9941 158.49 112.172 158.368C119.423 158.306 126.921 158.243 134.294 158.219C135.772 158.269 137.238 158.503 138.658 158.915C139.219 159.073 139.798 159.157 140.38 159.163C142.212 159.163 143.569 158.195 144.353 156.304C144.746 155.409 144.977 154.452 145.035 153.476C145.096 151.691 145.17 149.905 145.243 148.12C145.453 143.026 145.671 137.759 145.602 132.572C145.43 119.381 145.077 105.973 144.735 93.0061ZM15.0599 73.3344L7.3441 55.9127L28.402 46.7436L26.7008 67.4569L15.0599 73.3344ZM136.503 79.2906L135.837 149.905C123.922 150.524 112.064 150.547 100.592 150.57L97.3444 150.577C85.1535 150.608 73.0599 150.441 58.6468 150.183C49.6477 150.023 40.8318 149.789 31.4986 149.538C27.6302 149.435 23.7309 149.332 19.8007 149.231L19.313 144.475C17.2068 123.991 15.0298 102.814 15.6375 81.6777C15.9545 81.6344 16.2729 81.5878 16.5932 81.5419C17.6696 81.387 18.7834 81.2262 19.8795 81.1573C36.8498 80.0914 54.0918 80.4694 70.2967 80.9486C81.7019 81.2859 94.1217 81.322 109.389 81.0647C114.758 80.9735 120.201 80.5396 125.464 80.117C127.796 79.9306 130.209 79.7376 132.579 79.5775C133.549 79.5118 134.519 79.439 135.592 79.3582L136.503 79.2906ZM79.4021 43.6517L59.9483 52.2818L60.3421 47.9724C60.7707 43.2467 61.175 38.7927 61.5661 34.3368C61.562 33.8466 61.7201 33.3689 62.0159 32.9779C62.3115 32.5868 62.7283 32.3045 63.2011 32.1749C68.0198 30.3057 72.7763 28.3917 77.8118 26.3649C79.2793 25.7747 80.7672 25.1772 82.2748 24.5725C81.9559 26.1911 81.5896 27.7814 81.2326 29.3284C80.1247 34.1066 79.0818 38.6287 79.4027 43.6536L79.4021 43.6517ZM86.3796 40.4639C86.5476 39.2947 86.7117 38.1454 86.8718 37.016C87.5636 32.1591 88.2167 27.5701 88.9505 23.0243C89.0476 22.7309 89.2018 22.4597 89.4046 22.2266C89.6075 21.9936 89.8549 21.8033 90.1319 21.6669C94.929 19.7498 99.7092 17.9193 104.768 15.9818L108.268 14.6403C108.221 15.0674 108.15 15.4915 108.056 15.9108L107.567 17.9042C106.446 22.4834 105.287 27.219 104.06 31.8507C103.88 32.4726 103.471 33.0031 102.916 33.336C98.6419 35.2393 94.3081 37.0863 89.7203 39.0409L86.3796 40.4639ZM113.486 28.7732L116.089 11.7629C118.697 10.3504 122.25 9.51951 125.395 8.84939C125.792 8.78657 126.198 8.86868 126.539 9.08094L127.216 9.92972C130.115 13.5593 133.108 17.3062 135.103 21.8454L113.486 28.7732ZM33.4486 62.291C33.5296 60.0003 33.617 57.7101 33.7111 55.4204C33.8312 52.4433 33.9513 49.4655 34.0458 46.4871C34.0931 44.9775 34.1818 44.1682 35.5555 43.6169C39.8873 41.8704 44.2571 40.0162 48.4853 38.2225C50.4841 37.374 52.4839 36.5285 54.4848 35.6857C54.525 35.6698 54.5669 35.6586 54.6096 35.6523L51.8123 55.8798L33.555 64.1202C33.5504 64.0677 33.545 64.0152 33.5405 63.9634C33.4758 63.4079 33.4463 62.8489 33.4519 62.2897L33.4486 62.291Z" fill="black"/>
<path d="M121.041 120.026C121.028 119.35 121.015 118.651 120.956 117.959C120.851 116.744 120.75 115.528 120.655 114.312C120.35 110.554 120.036 106.667 119.529 102.862C119.033 99.1337 117.398 97.6983 113.496 97.5644C112.272 97.5224 111.049 97.4739 109.826 97.4253C106.835 97.3071 103.743 97.1844 100.695 97.1627C86.2093 97.0479 71.2258 96.9291 56.2472 96.9553C53.1781 96.9606 50.0684 97.1339 47.0584 97.3012C44.9929 97.4161 42.8578 97.5349 40.7575 97.5979C38.2031 97.674 36.5642 98.8705 35.8862 101.153C35.4929 102.381 35.2955 103.662 35.3014 104.951C35.4104 109.123 35.6027 113.637 35.8921 118.753C36.0234 121.113 36.2013 123.645 36.5984 126.183C37.1799 129.904 39.2598 132.052 42.957 132.746C45.2967 133.225 47.669 133.526 50.0539 133.65C58.247 133.927 66.5783 134.148 74.6355 134.361C77.5476 134.438 80.4598 134.516 83.372 134.595L84.0198 134.613L84.0283 134.403C86.2349 134.403 88.4409 134.405 90.6475 134.41C97.988 134.418 105.579 134.428 113.046 134.348C114.036 134.337 116.48 134.173 117.789 132.883C120.722 129.995 121.882 126.648 121.239 122.938C121.098 121.974 121.032 121.001 121.041 120.026ZM113.218 126.305C105.939 127.634 50.6401 127.45 43.9001 126.062L41.5373 104.241C62.2054 103.347 86.6668 102.686 112.109 104.369C112.629 108.315 112.857 112.293 112.79 116.271C112.758 119.621 112.901 122.971 113.218 126.305Z" fill="black"/>
<path d="M105.939 117.55C105.092 117.165 104.153 117.026 103.231 117.151C103.027 117.158 102.824 117.166 102.63 117.167C100.857 117.178 99.0853 117.208 97.3172 117.237C95.3843 117.269 93.4513 117.303 91.5184 117.309C87.4104 117.326 83.3017 117.338 79.1937 117.343C72.9683 117.356 66.531 117.369 60.1993 117.414C58.5827 117.453 56.9691 117.574 55.3648 117.776C54.9434 117.823 54.5222 117.868 54.1013 117.911C53.7088 117.937 53.3266 118.047 52.9808 118.234C52.635 118.421 52.3339 118.681 52.0981 118.996C51.9251 119.252 51.8108 119.544 51.7634 119.849C51.7159 120.155 51.7366 120.467 51.8238 120.763C52.0955 121.751 53.0761 122.497 53.9733 123.118C54.4596 123.379 55.021 123.465 55.563 123.36C55.712 123.349 55.8596 123.337 55.9974 123.337C62.3337 123.337 68.6687 123.337 74.2882 123.337H78.1875L84.8783 123.66C90.87 123.952 96.5289 124.228 102.08 124.448C102.333 124.458 102.599 124.466 102.875 124.466C104.049 124.51 105.218 124.299 106.303 123.849C107.345 123.358 108.522 121.749 108.358 120.64C108.176 119.403 106.976 118.171 105.939 117.55Z" fill="black"/>
<path d="M55.8692 113.866L58.4289 114.213C61.6213 114.649 64.9214 115.099 68.185 115.433C68.5 115.466 68.817 115.481 69.1341 115.481C70.2393 115.47 71.3387 115.311 72.402 115.008C73.3208 114.75 74.0074 113.558 74.1459 112.796C74.2948 111.978 73.5066 110.98 72.8804 110.575C72.1224 110.129 71.2724 109.863 70.3955 109.795C68.2953 109.582 66.1517 109.411 64.082 109.246C63.2892 109.183 62.4967 109.119 61.7047 109.055L61.0845 109.003L61.0648 109.148C60.6828 109.148 60.3008 109.145 59.9188 109.14C58.3856 109.126 56.7999 109.112 55.2358 109.2C54.529 109.239 53.1467 110.024 53.1487 110.878C53.2486 111.748 53.6221 112.563 54.2152 113.207C54.6649 113.625 55.2549 113.86 55.8692 113.866Z" fill="black"/>
</g>
<defs>
<clipPath id="clip0">
<rect width="145.707" height="159.49" fill="white" transform="translate(0.302002 0.204834)"/>
</clipPath>
</defs>
</svg>

<svg xmlns="http://www.w3.org/2000/svg" width="147" height="160" fill="none" viewBox="0 0 147 160"><g fill="#000" clip-path="url(#a)"><path d="m144.735 93.006-.191-7.255c-.066-2.617-.285-5.264-.494-7.824l-.131-1.617c-.185-2.317-1.467-3.592-3.61-3.592h-.338c-3.314.005-6.739.01-10.111.123-3.554.12-7.166.285-10.658.445-6.76.308-13.753.627-20.623.637-10.605.016-21.388-.14-31.818-.29-7.348-.105-14.946-.214-22.421-.262-3.865-.025-7.784.163-11.576.345q-1.72.083-3.44.16c.5-.231 1.001-.46 1.51-.678q11.07-4.8 22.136-9.61c19.756-8.582 40.183-17.455 60.314-26.09 10.77-4.618 19.856-7.555 28.596-9.243 1.919-.37 2.954-1.702 2.767-3.562a9.8 9.8 0 0 0-1.291-3.67 67 67 0 0 0-3.559-5.785c-3.061-4.434-6.189-8.795-8.571-12.097-1.525-2.116-3.438-2.833-5.679-2.13-1.519.476-3.077.932-4.582 1.374-2.842.833-5.776 1.694-8.612 2.73-21.688 7.932-50.17 18.65-78.146 31.241-8.902 4.007-17.875 8.247-26.553 12.346l-3.347 1.58c-1.853.874-3.02 2.042-3.479 3.472-.45 1.417-.176 3.024.814 4.774a68 68 0 0 1 6.599 17.016c.15.597.344 1.182.531 1.746.162.484.323.969.455 1.46.09.335.197.672.298 1.009a9.3 9.3 0 0 1 .554 2.655c-.003 1.539-.1 3.113-.191 4.636-.116 1.9-.234 3.865-.18 5.808.274 9.832.663 20.417 1.223 33.308.131 3.027.328 6.098.516 9.069.26 4.074.525 8.286.633 12.427.172 6.803 1.365 8.12 7.977 8.806.46.048.923.073 1.385.092 4.857.203 9.8.446 14.578.681 10.778.53 21.922 1.078 32.894 1.206 14.42.167 29.08.043 43.258-.079a4202 4202 0 0 1 22.122-.149c1.478.05 2.944.284 4.364.696.561.158 1.14.242 1.722.248 1.832 0 3.189-.968 3.973-2.859a8.3 8.3 0 0 0 .682-2.828c.061-1.785.135-3.571.208-5.356.21-5.094.428-10.361.359-15.548-.172-13.191-.525-26.599-.867-39.566M15.06 73.334 7.344 55.913l21.058-9.17-1.701 20.714zm121.443 5.957-.666 70.614c-11.915.619-23.773.642-35.245.665l-3.248.007c-12.19.031-24.284-.136-38.697-.394-9-.16-17.815-.394-27.148-.645q-5.803-.155-11.698-.307l-.488-4.756c-2.106-20.484-4.283-41.661-3.675-62.797l.955-.136c1.077-.155 2.19-.316 3.287-.385 16.97-1.066 34.212-.688 50.417-.208 11.405.337 23.825.373 39.092.116 5.369-.091 10.812-.525 16.075-.948 2.332-.186 4.745-.38 7.115-.54a401 401 0 0 0 3.013-.219zm-57.1-35.64-19.455 8.63.394-4.309c.429-4.725.833-9.18 1.224-13.635a2.22 2.22 0 0 1 1.635-2.162c4.819-1.87 9.575-3.783 14.61-5.81q2.202-.886 4.464-1.792a150 150 0 0 1-1.042 4.755c-1.108 4.779-2.151 9.3-1.83 14.326zm6.977-3.187q.252-1.755.492-3.448c.692-4.857 1.345-9.446 2.079-13.992a2.33 2.33 0 0 1 1.18-1.357c4.798-1.917 9.578-3.748 14.637-5.685l3.5-1.342q-.07.641-.212 1.27l-.489 1.994c-1.121 4.58-2.28 9.315-3.507 13.947a2.56 2.56 0 0 1-1.144 1.485c-4.274 1.903-8.608 3.75-13.196 5.705zm27.106-11.69 2.603-17.011c2.608-1.413 6.161-2.243 9.306-2.914a1.67 1.67 0 0 1 1.144.232l.677.849c2.899 3.63 5.892 7.376 7.887 11.915zM33.449 62.29q.12-3.435.262-6.87c.12-2.978.24-5.956.335-8.934.047-1.51.136-2.319 1.51-2.87 4.331-1.747 8.701-3.6 12.93-5.395q2.997-1.273 5.999-2.536a.6.6 0 0 1 .125-.034L51.812 55.88l-18.257 8.24-.014-.157a13 13 0 0 1-.09-1.673z"/><path d="M121.041 120.026c-.013-.676-.026-1.375-.085-2.067a444 444 0 0 1-.301-3.647c-.305-3.758-.619-7.645-1.126-11.45-.496-3.728-2.131-5.164-6.033-5.298q-1.836-.064-3.67-.139c-2.991-.118-6.083-.24-9.131-.262-14.486-.115-29.47-.234-44.448-.208-3.069.006-6.179.179-9.189.346-2.065.115-4.2.234-6.3.297-2.555.076-4.194 1.273-4.872 3.555a12.3 12.3 0 0 0-.585 3.798c.11 4.172.302 8.686.591 13.802.131 2.36.31 4.892.706 7.43.582 3.721 2.662 5.869 6.359 6.563 2.34.479 4.712.78 7.097.904 8.193.277 16.524.498 24.581.711q4.37.115 8.737.234l.648.018.008-.21q3.31 0 6.62.007c7.34.008 14.931.018 22.398-.062.99-.011 3.434-.175 4.743-1.465 2.933-2.888 4.093-6.235 3.45-9.945a19 19 0 0 1-.198-2.912m-7.823 6.279c-7.279 1.329-62.578 1.145-69.318-.243l-2.363-21.821c20.668-.894 45.13-1.555 70.572.128.52 3.946.748 7.924.681 11.902-.032 3.35.111 6.7.428 10.034"/><path d="M105.939 117.55a4.94 4.94 0 0 0-2.708-.399c-.204.007-.407.015-.601.016-1.773.011-3.545.041-5.313.07-1.933.032-3.866.066-5.799.072q-6.162.026-12.324.034c-6.226.013-12.663.026-18.995.071q-2.426.059-4.834.362-.633.07-1.264.135a2.74 2.74 0 0 0-2.003 1.085 2.1 2.1 0 0 0-.274 1.767c.272.988 1.252 1.734 2.15 2.355a2.4 2.4 0 0 0 1.589.242c.149-.011.297-.023.434-.023h22.191l6.69.323c5.992.292 11.65.568 17.202.788q.38.017.795.018a8.15 8.15 0 0 0 3.428-.617c1.042-.491 2.219-2.1 2.055-3.209-.182-1.237-1.382-2.469-2.419-3.09m-50.069-3.684 2.559.347c3.192.436 6.492.886 9.756 1.22q.473.049.95.048a12.4 12.4 0 0 0 3.267-.473c.919-.258 1.605-1.45 1.744-2.212.149-.818-.64-1.816-1.266-2.221a5.8 5.8 0 0 0-2.484-.78 296 296 0 0 0-6.314-.549l-2.377-.191-.62-.052-.02.145q-.573 0-1.146-.008c-1.533-.014-3.12-.028-4.683.06-.707.039-2.09.824-2.087 1.678.1.87.473 1.685 1.066 2.329.45.418 1.04.653 1.654.659"/></g><defs><clipPath id="a"><path fill="#fff" d="M.302.205h145.707v159.49H.302z"/></clipPath></defs></svg>
